!!!!SEGMENT: Snf0304-Da_pacem_Domine_II.krn
!!!id: Snf0304
!!!AGN: Motet
!!!voices: 5
!!!COM: Ludwig Senfl
!!!OTL: Da pacem, Domine II
**kern	**text	**kern	**text	**kern	**text	**kern	**text	**kern	**text
*part5	*part5	*part4	*part4	*part3	*part3	*part2	*part2	*part1	*part1
*staff5	*staff5	*staff4	*staff4	*staff3	*staff3	*staff2	*staff2	*staff1	*staff1
*I"Bassus	*	*I"Tenor II	*	*I"Tenor I	*	*I"Altus	*	*I"Superius	*
*I'B	*	*I'T. II	*	*I'T. I	*	*I'A	*	*I'S	*
*clefF4	*	*clefGv2	*	*clefGv2	*	*clefGv2	*	*clefG2	*
*k[b-]	*	*k[b-]	*	*k[b-]	*	*k[b-]	*	*k[b-]	*
*F:	*	*F:	*	*F:	*	*F:	*	*F:	*
*M2/1	*	*M2/1	*	*M2/1	*	*M2/1	*	*M2/1	*
*met(C|)	*	*met(C|)	*	*met(C|)	*	*met(C|)	*	*met(C|)	*
!!section: Prima pars: Da pacem, Domine
!!!OMD: Prima pars: Da pacem, Domine
=1	=1	=1	=1	=1	=1	=1	=1	=1	=1
0r	.	0r	.	0r	.	0r	.	1g	Da
.	.	.	.	.	.	.	.	1f	pa-
=2	=2	=2	=2	=2	=2	=2	=2	=2	=2
0r	.	0r	.	0r	.	1r	.	1g	-cem,
.	.	.	.	.	.	1G	Da	1b-y	Do-
=3	=3	=3	=3	=3	=3	=3	=3	=3	=3
0r	.	0r	.	0r	.	1F	pa-	1cc	-mi-
.	.	.	.	.	.	1G	-cem,	1b-y	-ne,
=4	=4	=4	=4	=4	=4	=4	=4	=4	=4
0r	.	0r	.	0r	.	1B-y	Do-	1r	.
.	.	.	.	.	.	1c	-mi-	2r	.
.	.	.	.	.	.	.	.	2a	in
=5	=5	=5	=5	=5	=5	=5	=5	=5	=5
0r	.	0r	.	0r	.	1B-y	-ne,	1b-y	di-
.	.	.	.	.	.	2r	.	1cc	-e-
.	.	.	.	.	.	2A	in	.	.
=6	=6	=6	=6	=6	=6	=6	=6	=6	=6
0r	.	0r	.	0r	.	1B-y	di-	1b-y	-bus
.	.	.	.	.	.	1c	-e-	2a	.
.	.	.	.	.	.	.	.	[2g	no-
=7	=7	=7	=7	=7	=7	=7	=7	=7	=7
0r	.	0r	.	0r	.	1B-y	-bus	2g]	.
.	.	.	.	.	.	.	.	1f	.
.	.	.	.	.	.	1A	.	.	.
.	.	.	.	.	.	.	.	[2e	.
=8	=8	=8	=8	=8	=8	=8	=8	=8	=8
0r	.	0r	.	0r	.	1G	no-	2e]	.
.	.	.	.	.	.	.	.	1d	.
.	.	.	.	.	.	1G	-stris,	.	.
.	.	.	.	.	.	.	.	[2d	-stris,
=9	=9	=9	=9	=9	=9	=9	=9	=9	=9
0GG	Da	0r	.	0r	.	2r	.	2d]	.
.	.	.	.	.	.	2.G	da	2.g	da
.	.	.	.	.	.	4A	.	4f	.
.	.	.	.	.	.	4B-y	.	4d	.
.	.	.	.	.	.	4G	.	4e	.
=10	=10	=10	=10	=10	=10	=10	=10	=10	=10
0FF	pa-	0r	.	0r	.	2A	.	2f	.
.	.	.	.	.	.	1B-y	.	2d	.
.	.	.	.	.	.	.	.	1c	pa-
.	.	.	.	.	.	2A	pa-	.	.
=11	=11	=11	=11	=11	=11	=11	=11	=11	=11
0GG	-cem,	0r	.	0G	Da	0B-y	-cem,	2B-y	.
.	.	.	.	.	.	.	.	1b-y	-cem,
.	.	.	.	.	.	.	.	4a	.
.	.	.	.	.	.	.	.	4g	.
=12	=12	=12	=12	=12	=12	=12	=12	=12	=12
0r	.	0d	Da	0F	pa-	2r	.	0a	.
.	.	.	.	.	.	2.d	da	.	.
.	.	.	.	.	.	4e	.	.	.
.	.	.	.	.	.	4f	.	.	.
.	.	.	.	.	.	4d	.	.	.
=13	=13	=13	=13	=13	=13	=13	=13	=13	=13
0r	.	0c	pa-	0G	-cem,	2e	.	0r	.
.	.	.	.	.	.	1f	.	.	.
.	.	.	.	.	.	2e	pa-	.	.
=14	=14	=14	=14	=14	=14	=14	=14	=14	=14
0BB-y	Do-	0d	-cem,	0r	.	2f	-cem,	2r	.
.	.	.	.	.	.	2.B-y	Do-	2.d	Do-
.	.	.	.	.	.	4c	.	4e	.
.	.	.	.	.	.	2d	.	4f	.
.	.	.	.	.	.	.	.	4d	.
=15	=15	=15	=15	=15	=15	=15	=15	=15	=15
0C	-mi-	0r	.	0r	.	2G	-mi-	2e	.
.	.	.	.	.	.	2A	-ne,	1f	.
.	.	.	.	.	.	2.G	.	.	.
.	.	.	.	.	.	.	.	2e	-mi-
.	.	.	.	.	.	8FL	.	.	.
.	.	.	.	.	.	8EJ	.	.	.
=16	=16	=16	=16	=16	=16	=16	=16	=16	=16
0BB-y	-ne,	0f	Do-	[0B-y	Do-	1D	.	2f	-ne,
.	.	.	.	.	.	.	.	2.d	Do-
.	.	.	.	.	.	2r	.	.	.
.	.	.	.	.	.	.	.	4e	.
.	.	.	.	.	.	2d	Do-	4f	.
.	.	.	.	.	.	.	.	4d	.
=17	=17	=17	=17	=17	=17	=17	=17	=17	=17
0r	.	0g	-mi-	0B-]	.	2G	-mi-	2e	.
.	.	.	.	.	.	1d	-ne,	1f	.
.	.	.	.	.	.	4c	.	2e	-mi-
.	.	.	.	.	.	4B-y	.	.	.
=18	=18	=18	=18	=18	=18	=18	=18	=18	=18
1r	.	[0f	-ne,	0c	-mi-	1A	.	2f	-ne,
.	.	.	.	.	.	.	.	2.a	in
1AA	in	.	.	.	.	2r	.	.	.
.	.	.	.	.	.	.	.	4b-y	.
.	.	.	.	.	.	2A	in	2cc	.
=19	=19	=19	=19	=19	=19	=19	=19	=19	=19
0BB-y	di-	0f]	.	0B-y	-ne,	2D	di-	2f	di-
.	.	.	.	.	.	2.d	-e-	2.b-y	-e-
.	.	.	.	.	.	4e	.	4cc	.
.	.	.	.	.	.	4f	.	2dd	.
.	.	.	.	.	.	4d	.	.	.
=20	=20	=20	=20	=20	=20	=20	=20	=20	=20
0C	-e-	1r	.	0r	.	2e	.	0g	-bus,
.	.	.	.	.	.	2.c	.	.	.
.	.	1e	in	.	.	.	.	.	.
.	.	.	.	.	.	4d	.	.	.
.	.	.	.	.	.	4e	.	.	.
.	.	.	.	.	.	4c	.	.	.
=21	=21	=21	=21	=21	=21	=21	=21	=21	=21
1BB-y	-bus	0f	di-	1r	.	2d	.	1r	.
.	.	.	.	.	.	1D	.	.	.
1AA	.	.	.	1A	in	.	.	1cc	in
.	.	.	.	.	.	2C	.	.	.
=22	=22	=22	=22	=22	=22	=22	=22	=22	=22
1GG	no-	0g	-e-	0B-y	di-	2D	.	2b-y	di-
.	.	.	.	.	.	1d	-bus	1b-y	-e-
1GG	-stris,	.	.	.	.	.	.	.	.
.	.	.	.	.	.	4c	.	4a	.
.	.	.	.	.	.	4B-y	.	4g	.
=23	=23	=23	=23	=23	=23	=23	=23	=23	=23
0r	.	1f	-bus	0c	-e-	1f	.	1a	.
.	.	1e	.	.	.	2r	.	2g	-bus
.	.	.	.	.	.	2c	no-	[2g	no-
=24	=24	=24	=24	=24	=24	=24	=24	=24	=24
0r	.	1d	no-	1B-y	-bus	0d	.	2g]	.
.	.	.	.	.	.	.	.	4f#i	.
.	.	.	.	.	.	.	.	4e	.
.	.	1d	-stris,	1A	.	.	.	1f#i	.
=25	=25	=25	=25	=25	=25	=25	=25	=25	=25
0r	.	0r	.	1G	no-	1B-y	-stris,	0g	-stris,
.	.	.	.	1G	-stris,	2r	.	.	.
.	.	.	.	.	.	[2B-y	in	.	.
=26	=26	=26	=26	=26	=26	=26	=26	=26	=26
0r	.	0r	.	0r	.	2B-]	.	2r	.
.	.	.	.	.	.	2c	di-	2e	in
.	.	.	.	.	.	2d	-e-	2f	di-
.	.	.	.	.	.	4G	.	[2g	-e-
.	.	.	.	.	.	4A	.	.	.
=27	=27	=27	=27	=27	=27	=27	=27	=27	=27
1r	.	0r	.	0r	.	4B-y	.	2g]	.
.	.	.	.	.	.	4c	.	.	.
.	.	.	.	.	.	4d	.	2f	-bus
.	.	.	.	.	.	4B-y	.	.	.
1AA	in	.	.	.	.	4c	.	1e	no-
.	.	.	.	.	.	4B-y	.	.	.
.	.	.	.	.	.	4A	.	.	.
.	.	.	.	.	.	4G	.	.	.
=28	=28	=28	=28	=28	=28	=28	=28	=28	=28
0BB-y	di-	0r	.	0r	.	2F	.	1d	-stris,
.	.	.	.	.	.	2G	.	.	.
.	.	.	.	.	.	2F	.	2r	.
.	.	.	.	.	.	[2G	-bus,	2d	in
=29	=29	=29	=29	=29	=29	=29	=29	=29	=29
0C	-e-	1r	.	0r	.	2G]	.	2e	.
.	.	.	.	.	.	2A	in	2c	.
.	.	1e	in	.	.	2G	.	2r	.
.	.	.	.	.	.	2A	.	2cc	di-
=30	=30	=30	=30	=30	=30	=30	=30	=30	=30
*	*	*	*	*	*	*M3/3%2	*	*	*
*	*	*	*	*	*	*met(3)	*	*	*
*	*	*	*	*	*	*Xtuplet	*	*	*
1BB-y	-bus	0f	di-	1r	.	3.B-y	di-	2dd	-e-
.	.	.	.	.	.	6c	.	2b-y	.
.	.	.	.	.	.	3d	.	.	.
1AA	.	.	.	1A	in	3%2c	-e-	1cc	.
.	.	.	.	.	.	3C	.	.	.
=31	=31	=31	=31	=31	=31	=31	=31	=31	=31
1GG	no-	0g	-e-	0B-y	di-	3%2D	-bus	1b-y	-bus
.	.	.	.	.	.	3r	.	.	.
1GG	-stris.	.	.	.	.	3.d	no-	2r	.
.	.	.	.	.	.	6c	.	2g	no-
.	.	.	.	.	.	3B-y	.	.	.
=32	=32	=32	=32	=32	=32	=32	=32	=32	=32
0r	.	1f	-bus	0c	-e-	3.A	.	2a	.
.	.	.	.	.	.	6B-y	.	2f	.
.	.	.	.	.	.	6c	.	.	.
.	.	.	.	.	.	6d	.	.	.
.	.	1e	.	.	.	3%2e	.	2.g	.
.	.	.	.	.	.	3c	.	.	.
.	.	.	.	.	.	.	.	4e	.
=33	=33	=33	=33	=33	=33	=33	=33	=33	=33
0r	.	0d	no-	1B-y	-bus	[0dl	-stris.	2f	.
.	.	.	.	.	.	.	.	1g	.
.	.	.	.	1A	.	.	.	.	.
.	.	.	.	.	.	.	.	2f#i	.
=34	=34	=34	=34	=34	=34	=34	=34	=34	=34
[0GGl	-stris.	[0dl	-stris.	0G	no-	0d_	.	[0gl	-stris.
=35	=35	=35	=35	=35	=35	=35	=35	=35	=35
00GG]	.	00d]	.	00G	-stris.	00d]	.	00g]	.
=36||	=36||	=36||	=36||	=36||	=36||	=36||	=36||	=36||	=36||
*M2/1	*	*M2/1	*	*M2/1	*	*M2/1	*	*M2/1	*
*met(C|)	*	*met(C|)	*	*met(C|)	*	*met(C|)	*	*met(C|)	*
!!section: Secunda pars: Quia non est
!!!OMD: Secunda pars: Quia non est
0r	.	0r	.	0r	.	0r	.	1b-y	Qui-
.	.	.	.	.	.	.	.	1b-y	-a
=37	=37	=37	=37	=37	=37	=37	=37	=37	=37
0r	.	0r	.	0r	.	1f	Qui-	0a	non
.	.	.	.	.	.	1f	-a	.	.
=38	=38	=38	=38	=38	=38	=38	=38	=38	=38
0r	.	0r	.	0r	.	0e	non	0g	.
=39	=39	=39	=39	=39	=39	=39	=39	=39	=39
0r	.	0r	.	1B-y	Qui-	0d	.	1f	est,
.	.	.	.	1B-y	-a	.	.	2r	.
.	.	.	.	.	.	.	.	2b-y	qui-
=40	=40	=40	=40	=40	=40	=40	=40	=40	=40
0r	.	1f	Qui-	0A	non	1c	est,	2.cc	.
.	.	.	.	.	.	.	.	4c	.
.	.	1f	-a	.	.	2r	.	2c	-a
.	.	.	.	.	.	2d	non	2f	non
=41	=41	=41	=41	=41	=41	=41	=41	=41	=41
0r	.	0e	non	0G	.	1e	est,	1g	est,
.	.	.	.	.	.	2r	.	2r	.
.	.	.	.	.	.	2e	qui-	2cc	qui-
=42	=42	=42	=42	=42	=42	=42	=42	=42	=42
1BB-y	Qui-	0d	.	0F	est,	2.f	.	2.dd	-a
.	.	.	.	.	.	4B-y	.	4d	.
1BB-y	-a	.	.	.	.	2B-y	-a	2d	.
.	.	.	.	.	.	2B-y	non	2d	non
=43	=43	=43	=43	=43	=43	=43	=43	=43	=43
0AA	non	0c	est	0r	.	2.c	est	2.e	est
.	.	.	.	.	.	4A	.	4c	.
.	.	.	.	.	.	2.A	.	1c	.
.	.	.	.	.	.	8GL	.	.	.
.	.	.	.	.	.	8FJ	.	.	.
=44	=44	=44	=44	=44	=44	=44	=44	=44	=44
0GG	.	0r	.	0r	.	2E	.	1r	.
.	.	.	.	.	.	1F	.	.	.
.	.	.	.	.	.	.	.	2r	.
.	.	.	.	.	.	2E	.	2g	a-
=45	=45	=45	=45	=45	=45	=45	=45	=45	=45
0FF	est	0r	.	0r	.	2F	.	2.a	.
.	.	.	.	.	.	2.c	a-	.	.
.	.	.	.	.	.	.	.	4f	.
.	.	.	.	.	.	.	.	2.f	.
.	.	.	.	.	.	4A	.	.	.
.	.	.	.	.	.	4A	.	.	.
.	.	.	.	.	.	4F	.	4d	.
=46	=46	=46	=46	=46	=46	=46	=46	=46	=46
1BB-y	a-	0r	.	1B-y	qui-	2.F	.	2d	.
.	.	.	.	.	.	.	.	1f	.
.	.	.	.	.	.	4D	.	.	.
1BB-y	-li-	.	.	1B-y	-a	2D	.	.	.
.	.	.	.	.	.	2d	.	2g	.
=47	=47	=47	=47	=47	=47	=47	=47	=47	=47
0C	.	0r	.	1A	non	4e	.	2c	.
.	.	.	.	.	.	4d	.	.	.
.	.	.	.	.	.	4c	.	1f	.
.	.	.	.	.	.	4B-y	.	.	.
.	.	.	.	1G	.	1c	.	.	.
.	.	.	.	.	.	.	.	2e	.
=48	=48	=48	=48	=48	=48	=48	=48	=48	=48
0D	.	0r	.	0F	est	2.A	.	2.f	.
.	.	.	.	.	.	4F	.	4d	.
.	.	.	.	.	.	2.f	.	2d	.
.	.	.	.	.	.	.	.	2dd	.
.	.	.	.	.	.	4d	-li-	.	.
=49	=49	=49	=49	=49	=49	=49	=49	=49	=49
0C	.	0r	.	0r	.	4e	-us,	2g	.
.	.	.	.	.	.	4c	.	.	.
.	.	.	.	.	.	2.e	a-	2.cc	.
.	.	.	.	.	.	4d	.	4b-y	.
.	.	.	.	.	.	4c	.	4a	.
.	.	.	.	.	.	4B-y	.	4g	.
=50	=50	=50	=50	=50	=50	=50	=50	=50	=50
2.D	-us	1f	a-	0r	.	4A	.	2f	.
.	.	.	.	.	.	4F	.	.	.
.	.	.	.	.	.	2.f	.	2d	-li-
4C	.	.	.	.	.	.	.	.	.
4D	.	1f	-li-	.	.	.	.	1a	-us,
4E	.	.	.	.	.	4e	.	.	.
[2F	.	.	.	.	.	[2d	.	.	.
=51	=51	=51	=51	=51	=51	=51	=51	=51	=51
2F]	.	0g	.	0r	.	2d]	.	1r	.
4E	.	.	.	.	.	4c	.	.	.
4D	.	.	.	.	.	4B-y	.	.	.
1E	.	.	.	.	.	2c	.	2r	.
.	.	.	.	.	.	2c	-li-	[2g	a-
=52	=52	=52	=52	=52	=52	=52	=52	=52	=52
0D	.	0a	.	0r	.	[0d	-us,	2g]	.
.	.	.	.	.	.	.	.	4f	.
.	.	.	.	.	.	.	.	4e	.
.	.	.	.	.	.	.	.	2f	.
.	.	.	.	.	.	.	.	2f	-li-
=53	=53	=53	=53	=53	=53	=53	=53	=53	=53
0r	.	0g	.	1B-y	a-	0d]	.	2g	-us,
.	.	.	.	.	.	.	.	2.b-y	a-
.	.	.	.	1B-y	-li-	.	.	.	.
.	.	.	.	.	.	.	.	4a	.
.	.	.	.	.	.	.	.	4g	.
.	.	.	.	.	.	.	.	4f	.
=54	=54	=54	=54	=54	=54	=54	=54	=54	=54
0r	.	2.a	-us	0c	-us	0r	.	4e	.
.	.	.	.	.	.	.	.	4c	.
.	.	.	.	.	.	.	.	2.cc	.
.	.	4g	.	.	.	.	.	.	.
.	.	4a	.	.	.	.	.	.	.
.	.	4b-y	.	.	.	.	.	4b-y	.
.	.	[2cc	.	.	.	.	.	[2a	.
=55	=55	=55	=55	=55	=55	=55	=55	=55	=55
0r	.	2cc]	.	0d	.	1r	.	2a]	.
.	.	4b-y	.	.	.	.	.	4g	.
.	.	4a	.	.	.	.	.	4f	.
.	.	1b-y	.	.	.	2r	.	2g	.
.	.	.	.	.	.	2d	a-	2g	-li-
=56	=56	=56	=56	=56	=56	=56	=56	=56	=56
0r	.	0a	.	0c	.	2e	.	[0a	-us
.	.	.	.	.	.	1f	.	.	.
.	.	.	.	.	.	2e	.	.	.
=57	=57	=57	=57	=57	=57	=57	=57	=57	=57
1r	.	1r	.	2.d	.	1.f	.	0a]	.
.	.	.	.	4c	.	.	.	.	.
1D	qui	2r	.	4d	.	.	.	.	.
.	.	.	.	4e	.	.	.	.	.
.	.	[2a	qui	[2f	.	2F	-li-	.	.
=58	=58	=58	=58	=58	=58	=58	=58	=58	=58
1D	pu-	2a]	.	2f]	.	1F	-us	1r	.
.	.	1a	pu-	4e	.	.	.	.	.
.	.	.	.	4d	.	.	.	.	.
1C	-gnet	.	.	1e	.	2r	.	1cc	qui
.	.	[2g	-gnet	.	.	2G	qui	.	.
=59	=59	=59	=59	=59	=59	=59	=59	=59	=59
0BB-y	pro	2g]	.	0d	.	2B-y	pu-	1dd	pu-
.	.	1f	pro	.	.	2B-y	-gnet	.	.
.	.	.	.	.	.	2B-y	pro	2dd	-gnet
.	.	2f	no-	.	.	[2d	no-	2dd	pro
=60	=60	=60	=60	=60	=60	=60	=60	=60	=60
1BB-y	no-	2g	.	0r	.	4d]	.	1dd	no-
.	.	.	.	.	.	4c	.	.	.
.	.	1f	.	.	.	1B-y	.	.	.
1C	.	.	.	.	.	.	.	1cc	-bis,
.	.	2e	.	.	.	2A	.	.	.
=61	=61	=61	=61	=61	=61	=61	=61	=61	=61
[0BB-y	-bis,	1f	-bis,	1r	.	1B-y	-bis,	2r	.
.	.	.	.	.	.	.	.	1dd	qui
.	.	2r	.	1d	qui	1B-y	qui	.	.
.	.	2f	pro	.	.	.	.	[2dd	pu-
=62	=62	=62	=62	=62	=62	=62	=62	=62	=62
1BB-]	.	0f	no-	1d	pu-	0f	pu-	2dd]	.
.	.	.	.	.	.	.	.	4cc	.
.	.	.	.	.	.	.	.	4b-y	.
1r	.	.	.	1c	-gnet	.	.	1a	.
=63	=63	=63	=63	=63	=63	=63	=63	=63	=63
0r	.	[0g	.	0B-y	pro	1d	-gnet	1g	-gnet
.	.	.	.	.	.	2r	.	2g	pro
.	.	.	.	.	.	2d	pro	[2g	no-
=64	=64	=64	=64	=64	=64	=64	=64	=64	=64
0r	.	1g]	.	1B-y	no-	2.d	no-	4g]	.
.	.	.	.	.	.	.	.	4a	.
.	.	.	.	.	.	.	.	1b-y	.
.	.	.	.	.	.	8cL	.	.	.
.	.	.	.	.	.	8B-yJ	.	.	.
.	.	[1f	-bis,	1c	.	1f	.	.	.
.	.	.	.	.	.	.	.	2a	.
=65	=65	=65	=65	=65	=65	=65	=65	=65	=65
1BB-y	ni-	1f]	.	0B-y	-bis,	1d	-bis,	1b-y	-bis,
1BB-y	-si	[1f	ni-	.	.	2r	.	2r	.
.	.	.	.	.	.	2d	ni-	[2f	ni-
=66	=66	=66	=66	=66	=66	=66	=66	=66	=66
1AA	tu,	1f]	.	0r	.	2c	-si	4f]	.
.	.	.	.	.	.	.	.	4g	.
.	.	.	.	.	.	2c	tu	2a	.
1BB-y	.	1f	-si	.	.	2d	De-	2f	-si
.	.	.	.	.	.	2d	-us	2b-y	tu,
=67	=67	=67	=67	=67	=67	=67	=67	=67	=67
0C	De-	0e	tu,	0r	.	1c	no-	2a	De-
.	.	.	.	.	.	.	.	1g	.
.	.	.	.	.	.	2.G	.	.	.
.	.	.	.	.	.	.	.	4f	.
.	.	.	.	.	.	4A	.	4e	.
=68	=68	=68	=68	=68	=68	=68	=68	=68	=68
1BB-y	-us	0f	.	0r	.	4B-y	.	4d	.
.	.	.	.	.	.	4c	.	4e	.
.	.	.	.	.	.	4d	.	4f	.
.	.	.	.	.	.	4B-y	.	4g	.
1AA	.	.	.	.	.	2c	.	4a	.
.	.	.	.	.	.	.	.	4b-y	.
.	.	.	.	.	.	2C	.	4cc	.
.	.	.	.	.	.	.	.	4a	.
=69	=69	=69	=69	=69	=69	=69	=69	=69	=69
1GG	no-	0g	De-	1B-y	ni-	2D	-ster,	4b-y	.
.	.	.	.	.	.	.	.	4a	.
.	.	.	.	.	.	1d	ni-	4g	.
.	.	.	.	.	.	.	.	4f	.
1GG	-ster,	.	.	1B-y	-si	.	.	1g	.
.	.	.	.	.	.	2B-y	-si	.	.
=70	=70	=70	=70	=70	=70	=70	=70	=70	=70
2r	.	0f	-us	1A	tu,	2c	tu,	1a	-us,
1D	ni-	.	.	.	.	1f	De-	.	.
.	.	.	.	1B-y	.	.	.	2r	.
2D	-si	.	.	.	.	2d	-us	2dd	ni-
=71	=71	=71	=71	=71	=71	=71	=71	=71	=71
2AA	tu,	0e	.	0c	De-	2r	.	2cc	-si
1C	De-	.	.	.	.	1e	no-	2cc	tu,
.	.	.	.	.	.	.	.	2.g	De-
2C	-us	.	.	.	.	2c	-ster,	.	.
.	.	.	.	.	.	.	.	4a	.
=72	=72	=72	=72	=72	=72	=72	=72	=72	=72
1GG	no-	0d	no-	1B-y	-us	2r	.	2b-y	.
.	.	.	.	.	.	1d	De-	1g	-us
1D	.	.	.	1A	.	.	.	.	.
.	.	.	.	.	.	2A	-us	2f#i	no-
=73	=73	=73	=73	=73	=73	=73	=73	=73	=73
[0GGl	-ster.	[0dl	-ster.	0G	no-	2r	.	[0gl	-ster.
.	.	.	.	.	.	1B-y	no-	.	.
.	.	.	.	.	.	2G	-ster,	.	.
=74	=74	=74	=74	=74	=74	=74	=74	=74	=74
0GG_	.	0d_	.	0G	-ster.	2r	.	0g_	.
.	.	.	.	.	.	1d	no-	.	.
.	.	.	.	.	.	2B-y	.	.	.
=75	=75	=75	=75	=75	=75	=75	=75	=75	=75
00GG]	.	00d]	.	00Gl	.	00B-yl	-ster.	00g]	.
==	==	==	==	==	==	==	==	==	==
*-	*-	*-	*-	*-	*-	*-	*-	*-	*-
!!!system-decoration: [*]
!!!RDF**kern: i = editorial accidental
!!!RDF**kern: l = terminal long
!!!!PTL: <i> New Senfl Edition: Motets for Five Voices</i>
!!!PPR: Hollitzer Verlag
!!!PC#: Denkmäler der Tonkunst in Österreich 163.3
!!!PDT: 2022
!!!PED: Scott Lee Edwards, Stefan Gasch, and Sonja Tröster
!!!YEC: Copyright 2022 Denkmäler der Tonkunst in Österreich
!!!YEM: CC-BY-NC 4.0 (https://creativecommons.org/licenses/by-nc/4.0/legalcode)
!!!EED: Benjamin Ory
!!!EEV: 2024/12/2
!!!verovio: header encoded
!!!header-left: @{PTL}\n@{PED}, eds.\n@{PC#} (@{PDT})&nbsp;\n
!!!header-right:
!!!header-center: